icons/Equalizer.svg

<svg width="24" height="24" viewBox="0 0 24 24" fill="none" xmlns="http://www.w3.org/2000/svg">
<path fill-rule="evenodd" clip-rule="evenodd" d="M7.25 9.333C7.4269 9.333 7.59655 9.40327 7.72164 9.52836C7.84673 9.65345 7.917 9.8231 7.917 10V19.333C7.917 19.5099 7.84673 19.6796 7.72164 19.8046C7.59655 19.9297 7.4269 20 7.25 20H5.917C5.7401 20 5.57045 19.9297 5.44536 19.8046C5.32027 19.6796 5.25 19.5099 5.25 19.333V10C5.25 9.8231 5.32027 9.65345 5.44536 9.52836C5.57045 9.40327 5.7401 9.333 5.917 9.333H7.25ZM12.583 4C12.7599 4 12.9296 4.07027 13.0546 4.19536C13.1797 4.32045 13.25 4.4901 13.25 4.667V19.333C13.25 19.5099 13.1797 19.6796 13.0546 19.8046C12.9296 19.9297 12.7599 20 12.583 20H11.25C11.0731 20 10.9034 19.9297 10.7784 19.8046C10.6533 19.6796 10.583 19.5099 10.583 19.333V4.667C10.583 4.4901 10.6533 4.32045 10.7784 4.19536C10.9034 4.07027 11.0731 4 11.25 4H12.583ZM17.916 14.667C18.0929 14.667 18.2626 14.7373 18.3876 14.8624C18.5127 14.9874 18.583 15.1571 18.583 15.334V19.334C18.583 19.5109 18.5127 19.6806 18.3876 19.8056C18.2626 19.9307 18.0929 20.001 17.916 20.001H16.583C16.4061 20.001 16.2364 19.9307 16.1114 19.8056C15.9863 19.6806 15.916 19.5109 15.916 19.334V15.334C15.916 15.1571 15.9863 14.9874 16.1114 14.8624C16.2364 14.7373 16.4061 14.667 16.583 14.667H17.916Z" fill="black"/>
</svg>

<svg xmlns="http://www.w3.org/2000/svg" viewBox="0 0 24 24">
  <path d="M7.25 9.333a.667.667 0 01.667.667v9.333A.667.667 0 017.25 20H5.917a.667.667 0 01-.667-.667V10a.667.667 0 01.667-.667H7.25zM12.583 4a.667.667 0 01.667.667v14.666a.667.667 0 01-.667.667H11.25a.667.667 0 01-.667-.667V4.667A.667.667 0 0111.25 4h1.333zm5.333 10.667a.667.667 0 01.667.667v4a.667.667 0 01-.667.667h-1.333a.667.667 0 01-.667-.667v-4a.667.667 0 01.667-.667h1.333z"/>
</svg>
